!!!OTL: 593. Des Jaegers Heil und Unheil.
!!!COM: Fr. Reichardt
!!!ODT: 1803
!!!ARE: Europa, Mitteleuropa, Deutschland
!!!SCT: B0593
!!!TXL: @@DE
!!!YEM: Copyright 1995, estate of Helmut Schaffrath.
**kern	**text
*ICvox	*
*Ivox	*
*clefG2	*
*M6/8	*
*k[f#c#g#d#]	*
*E:	*
!LO:TX:a:t=Rasch und kräftig.	!
{8b	Es
=1	=1
4b	ritt
8g#	ein
8.b	Jä-
16a	-gersmann
8g#	.
=2	=2
[8f#	über
8f#]	.
8f#	die
4g#}	Flur,
{8b	hin-
=3	=3
[8ee	-ab
8ee]	in
8b	den
8g#	dunkeln
8f#	.
8e	.
=4	=4
[4.b	Wald.
8b]	.
8r}	.
{8b	Er
=5	=5
4b	folg-
8g#	-te
8.b	kun-
16a	-dig
8g#	des
=6	=6
[8f#	Wil-
8f#]	.
8f#	-des
4g#}	Spur,
{8b	ſeine
=7	=7
[8ee	Beu-
8ee]	.
8b	-te
8g#	wurde
8f#	.
8e	es
=8	=8
[4.b	bald
8b]	.
8r}	.
{8b	drauf
=9	=9
(8b	kehrt
8f#)	er
8b	nach
8b	Hau-
8g#	-ſe
8b	mit
=10	=10
8bL	Jagd-
8aJ	.
8g#	-ge-
4f#}	-ſang.
{8b	mit
=11	=11
(8b	lau-
8f#)	-tem
8b	und
8b	fröh-
8g#	-li-
8b	-chem
=12	=12
8bL	Hörnerklang.
8aJ	.
8g#	.
4f#}	.
{8e	Tra-
=13	=13
4e	-ra,
8g#	tra-
4g#	-ra,
8b	tra-
=14	=14
[4.b	-ra!
4b]}	.
{8b	Ʒum
=15	=15
8bL	Lieb-
8eeJ	.
8b	-chen
8aL	kehrt'
8g#J	.
8f#	er
=16	=16
(4.b	heim,
8ee)	.
8r}	.
{8b	ʒum
=17	=17
8bL	Lieb-
8eeJ	.
8b	-chen
8aL	kehrt'
8g#J	.
8f#	er
=18	=18
!LO:N:vis=4	!
4.e	beim.
4r}	.
==	==
!!!AGN: Staende -, Jaeger - Lied
!!!GTL: Jägerlieder
!!!ONB: ESAC (Essen Associative Code) Database: BOEHME
!!!AMT: compound duple
!!!AIN: vox
!!!EED: Helmut Schaffrath
!!!EEV: 1.0
!!Mel. Fr. Reichardt. 1803.
!!@@COMMENT:"Gedicht von Aug. Mahlmann. Ʒuerſt in Becker's "Taſchenbuch ʒum geſelligen Vergnügen
!!1803. S. 213. Reichardt's Mel. in der "Ʒeitung für die elegante Welt. 1803. Beil. Nr. 8.
!!Daher Fink, "Hausſchatʒ". Eine überflüſſige ſtörende Strophe nach der 3. habe ich weggelaſſen.
!!Die Strophen werden je nach dem Jnhalt verſchieden ſchattiert vorgetragen, die 4. langſam und in Moll!"
!!@@END:
!!!Text: Aug. Mahlmann
!!!URL-scan: https://archive.org/details/BoehmeVtLieder1895/page/n469/mode/2up
!!!ENC: Anna Maria Matuszewska
!!!EEV: 2024/15/07
*-	*-
